twotone/svg/vignette.svg

<svg xmlns="http://www.w3.org/2000/svg" width="24" height="24"><path fill="none" d="M0 0h24v24H0V0z"/><g fill="currentColor"><path opacity=".3" d="M3 19h18V5H3v14zm9-13c4.42 0 8 2.69 8 6s-3.58 6-8 6-8-2.69-8-6 3.58-6 8-6z"/><path d="M21 3H3c-1.1 0-2 .9-2 2v14c0 1.1.9 2 2 2h18c1.1 0 2-.9 2-2V5c0-1.1-.9-2-2-2zm0 16H3V5h18v14z"/><path d="M12 18c4.42 0 8-2.69 8-6s-3.58-6-8-6-8 2.69-8 6 3.58 6 8 6zm0-10c3.25 0 6 1.83 6 4s-2.75 4-6 4-6-1.83-6-4 2.75-4 6-4z"/></g></svg>

<?xml version="1.0" encoding="utf-8"?>
<!-- Generator: Adobe Illustrator 19.1.0, SVG Export Plug-In . SVG Version: 6.00 Build 0)  -->
<svg version="1.1" xmlns="http://www.w3.org/2000/svg" xmlns:xlink="http://www.w3.org/1999/xlink" x="0px" y="0px" width="24px"
	 height="24px" viewBox="0 0 24 24" enable-background="new 0 0 24 24" xml:space="preserve">
<g id="Bounding_Boxes">
	<g id="ui_x5F_spec_x5F_header_copy_2">
	</g>
	<path fill="none" d="M0,0h24v24H0V0z"/>
</g>
<g id="Duotone" fill="currentColor">
	<g id="ui_x5F_spec_x5F_header_copy_3">
	</g>
	<g>
		<path opacity="0.3" d="M3,19h18V5H3V19z M12,6c4.42,0,8,2.69,8,6s-3.58,6-8,6s-8-2.69-8-6S7.58,6,12,6z"/>
		<path d="M21,3H3C1.9,3,1,3.9,1,5v14c0,1.1,0.9,2,2,2h18c1.1,0,2-0.9,2-2V5C23,3.9,22.1,3,21,3z M21,19H3V5h18V19z"/>
		<path d="M12,18c4.42,0,8-2.69,8-6s-3.58-6-8-6s-8,2.69-8,6S7.58,18,12,18z M12,8c3.25,0,6,1.83,6,4s-2.75,4-6,4s-6-1.83-6-4
			S8.75,8,12,8z"/>
	</g>
</g>
</svg>
